rusokon/images/icon-feat-3.svg

<svg xmlns="http://www.w3.org/2000/svg" width="52" height="52" viewBox="0 0 51 51"><defs><style>.cls-1{fill:#a2a2a2;}.cls-2{fill:#ff1a44;}</style></defs><title>icon-feat-3</title><path class="cls-1" d="M51 51h-51v-51h51zm-50-1h49v-49h-49z"/><path class="cls-2" d="M18.8 17.4h7.1a.8.8 0 0 0 0-1.6h-7.1a.86.86 0 0 0-.8.8.79.79 0 0 0 .8.8zM18.8 22.1h10a.8.8 0 0 0 0-1.6h-10a.86.86 0 0 0-.8.8.79.79 0 0 0 .8.8zM23.5 25.3h-4.7a.8.8 0 1 0 0 1.6h4.7a.86.86 0 0 0 .8-.8.74.74 0 0 0-.8-.8zM36 29.2a5.45 5.45 0 0 0-1-3.1v-12.7a2.11 2.11 0 0 0-2.1-2.1h-15.8a2.11 2.11 0 0 0-2.1 2.1v17.3a2.2 2.2 0 0 0 .6 1.5l3.2 3.2a2 2 0 0 0 1.5.6h7.2v2.8a.81.81 0 0 0 1.3.6l1.5-1.4 1.5 1.4a.8.8 0 0 0 .8.1.75.75 0 0 0 .5-.7v-4.8a5.56 5.56 0 0 0 2.9-4.8zm-18.3 2.9h1.3v1.3zm2.9 2.3v-3.2a.86.86 0 0 0-.8-.8h-3.2v-17a.47.47 0 0 1 .5-.5h15.8a.47.47 0 0 1 .5.5v11.1a5.38 5.38 0 0 0-3.1-.9 5.57 5.57 0 0 0-2.8 10.4v.4zm11 2.7l-.8-.7a.67.67 0 0 0-1 0l-.8.7v-2.4a5.07 5.07 0 0 0 1.3.2 5.85 5.85 0 0 0 1.3-.2zm-1.2-3.9a4 4 0 1 1 4-4 4 4 0 0 1-4 4z"/></svg>

<svg id="Layer_1" data-name="Layer 1" xmlns="http://www.w3.org/2000/svg" width="52px" height="52px" viewBox="0 0 51 51"><defs><style>.cls-1{fill:#a2a2a2;}.cls-2{fill:#ff1a44;}</style></defs><title>icon-feat-3</title><path class="cls-1" d="M51,51H0V0H51ZM1,50H50V1H1Z"/><path class="cls-2" d="M18.8,17.4h7.1a.8.8,0,0,0,0-1.6H18.8a.86.86,0,0,0-.8.8A.79.79,0,0,0,18.8,17.4Z"/><path class="cls-2" d="M18.8,22.1h10a.8.8,0,0,0,0-1.6h-10a.86.86,0,0,0-.8.8A.79.79,0,0,0,18.8,22.1Z"/><path class="cls-2" d="M23.5,25.3H18.8a.8.8,0,1,0,0,1.6h4.7a.86.86,0,0,0,.8-.8A.74.74,0,0,0,23.5,25.3Z"/><path class="cls-2" d="M36,29.2a5.45,5.45,0,0,0-1-3.1V13.4a2.11,2.11,0,0,0-2.1-2.1H17.1A2.11,2.11,0,0,0,15,13.4V30.7a2.2,2.2,0,0,0,.6,1.5l3.2,3.2a2,2,0,0,0,1.5.6h7.2v2.8a.81.81,0,0,0,1.3.6L30.3,38l1.5,1.4a.8.8,0,0,0,.8.1.75.75,0,0,0,.5-.7V34A5.56,5.56,0,0,0,36,29.2ZM17.7,32.1H19v1.3Zm2.9,2.3V31.2a.86.86,0,0,0-.8-.8H16.6v-17a.47.47,0,0,1,.5-.5H32.9a.47.47,0,0,1,.5.5V24.5a5.38,5.38,0,0,0-3.1-.9A5.57,5.57,0,0,0,27.5,34v.4Zm11,2.7-.8-.7a.67.67,0,0,0-1,0l-.8.7V34.7a5.07,5.07,0,0,0,1.3.2,5.85,5.85,0,0,0,1.3-.2Zm-1.2-3.9a4,4,0,1,1,4-4A4,4,0,0,1,30.4,33.2Z"/></svg>
